trunk/public/assets/images/icons/yellow/move_right/key.svg

<svg width="16" height="16" xmlns="http://www.w3.org/2000/svg" viewBox="0 0 16 16" shape-rendering="geometricPrecision" fill="#ffad00"><defs><mask id="a"><rect fill="#fff" width="100%" height="100%"/><path fill="#000" d="M11.875-1.414l-2.47 2.47 2.035 2.04L9.405 5.13l2.47 2.472 4.51-4.51z"/></mask></defs><path fill="#cb1800" d="M11.875 0l-1.057 1.057 2.035 2.038-2.035 2.037 1.057 1.057 3.095-3.097"/><path d="M14.085 1.94c2.48 2.476 2.478 6.488.002 8.964-2.15 2.153-5.458 2.432-7.916.847h-.008v2.126l-.013.014H4.02v2.123H.012V12h.01l-.002-.006L3.594 8.42c-.73-2.204-.226-4.73 1.528-6.48 2.476-2.477 6.488-2.477 8.963 0zm-3.928 3.927c.78.78 2.043.78 2.824.002.78-.78.78-2.044 0-2.824-.78-.78-2.04-.78-2.822 0-.78.78-.78 2.044 0 2.82z" mask="url(#a)"/></svg>

<?xml version="1.0"?><!DOCTYPE svg PUBLIC "-//W3C//DTD SVG 1.1//EN" "http://www.w3.org/Graphics/SVG/1.1/DTD/svg11.dtd"><svg width="16px" height="16px" xmlns="http://www.w3.org/2000/svg" viewBox="0 0 16 16" shape-rendering="geometricPrecision" fill="#ffad00"><defs><mask id="move_right-path"><rect fill="#fff" width="100%" height="100%"/><polygon points="11.875,-1.414 9.405,1.056 11.44,3.095 9.405,5.132 11.875,7.604 16.385,3.093 " fill="#000"/></mask></defs><polygon points="11.875,0 10.818,1.057 12.853,3.095 10.818,5.132 11.875,6.189 14.97,3.093 " fill="#cb1800"/><g mask="url(#move_right-path)"><path d="M14.085,1.939c2.479,2.477,2.478,6.489,0.002,8.965c-2.15,2.153-5.458,2.432-7.916,0.847H6.162v2.125 L6.149,13.89H4.022v2.123H0.013v-4.014h0.01L0.02,11.994l3.574-3.573C2.863,6.216,3.368,3.691,5.122,1.94 C7.598-0.537,11.61-0.537,14.085,1.939z M10.157,5.867c0.78,0.78,2.043,0.779,2.824,0.002c0.779-0.78,0.779-2.043-0.001-2.823 c-0.78-0.779-2.041-0.779-2.822,0C9.379,3.825,9.379,5.09,10.157,5.867z"/></g></svg>
